lib/typescript/assets/images/icons/price-tag.svg

<?xml version="1.0" encoding="utf-8"?>
<svg viewBox="0 0 24 24" xmlns="http://www.w3.org/2000/svg">
  <path d="M3,5.5 C3,4.11928813 4.11928813,3 5.5,3 L11.5,3 C11.6326082,3 11.7597852,3.05267842 11.8535534,3.14644661 L20.1564971,11.4493903 C21.2890176,12.5819108 21.2890176,14.4180892 20.1564971,15.5506097 L15.5506097,20.1564971 C14.4180892,21.2890176 12.5819108,21.2890176 11.4493903,20.1564971 L3.14644661,11.8535534 C3.05267842,11.7597852 3,11.6326082 3,11.5 L3,5.5 Z M11.2928932,4 L5.5,4 C4.67157288,4 4,4.67157288 4,5.5 L4,11.2928932 L12.1564971,19.4493903 C12.8984933,20.1913865 14.1015067,20.1913865 14.8435029,19.4493903 L19.4493903,14.8435029 C20.1913865,14.1015067 20.1913865,12.8984933 19.4493903,12.1564971 L11.2928932,4 Z M8,7 C7.44771525,7 7,7.44771525 7,8 C7,8.55228475 7.44771525,9 8,9 C8.55228475,9 9,8.55228475 9,8 C9,7.44771525 8.55228475,7 8,7 Z M8,6 C9.1045695,6 10,6.8954305 10,8 C10,9.1045695 9.1045695,10 8,10 C6.8954305,10 6,9.1045695 6,8 C6,6.8954305 6.8954305,6 8,6 Z"/>
</svg>

<svg viewBox="0 0 24 24" xmlns="http://www.w3.org/2000/svg"><path d="M3 5.5A2.5 2.5 0 0 1 5.5 3h6a.5.5 0 0 1 .354.146l8.302 8.303a2.9 2.9 0 0 1 0 4.102l-4.605 4.605a2.9 2.9 0 0 1-4.102 0l-8.303-8.302A.5.5 0 0 1 3 11.5v-6zM11.293 4H5.5A1.5 1.5 0 0 0 4 5.5v5.793l8.156 8.156a1.9 1.9 0 0 0 2.688 0l4.605-4.605a1.9 1.9 0 0 0 0-2.688L11.293 4zM8 7a1 1 0 1 0 0 2 1 1 0 0 0 0-2zm0-1a2 2 0 1 1 0 4 2 2 0 0 1 0-4z"/></svg>
